X:1
T:Hail Redeemer, King Divine
T:Hymn to Christ the King
T:Music: Grattan Flood (1859-1928)
T:Text: Fr. P. Brennen, C.S.S.R
T:Public Domain
Z:Public Domain
L:1/8
M:4/4
K:D
V:1 treble nm="Piano" snm="Pno."
V:1
 F3 F G2 F2 | E3 B B4 | A2 G2 F2 D2 | F3 E E4 | F3 F G2 F2 | E3 B B4 | A2 D2 E2 F2 | E3 D D4 || %8
w: Hail, Re- deem- er,|King Di- vine!|Priest and Lamb, the|Throne is Thine,|King Whose reign shall|ne- ver cease,|Prince of ev- er-|last- ing peace!|
w: King, Whose Name cre-|a- tion thrills,|Rule our minds, our|hearts, our wills,|Till in peace each|na- tion rings,|With Thy prais- es|King of Kings!|
w: King most ho- ly,|King of Truth,|Guide the low- ly,|guide the youth;|Christ, Thou King of|Glo- ry bright,|Be to us E-|ter- nal Light.|
w: Crim- son streams, O|King of Grace,|Drenched Thy thorn- crowned|Head and Face,|Floods of Love's re-|deem- ing tide|Tore Thy Hands, Thy|Feet, Thy side.|
 A3 A d2 c2 | c3 B B4 | B3 B e2 c2 | B3 A A4 | d3 c B2 B2 | e3 d c4 | A3 A B2 d2 | d2 c2 d4 |] %16
w: An- gels, Saints and|Na- tions sing:|"Praised be Je- sus|Christ our King;|Lord of life, earth,|sky and sea,|King of Love on|Cal- va- ry."|
w: An- gels, Saints and|Na- tions sing:|"Praised be Je- sus|Christ, our King;|Lord of life, earth,|sky and sea,|King of Love on|Cal- va- ry."|
w: An- gels, Saints and|Na- tions sing:|"Praised be Je- sus|Christ, our King;|Lord of life earth,|sky and sea,|King of Love on|Cal- va- ry."|
w: Sing all tongues, let|none be dumb:|"Sa- cred Heart, Thy|King- dom come!"|To the King of|A- ges then,|Ho- nour, glo- ry,|love! A- men.|

